src/24/actions/contrast.svg

<svg xmlns="http://www.w3.org/2000/svg" viewBox="0 0 24 24">
  <defs id="defs3051">
    <style type="text/css" id="current-color-scheme">
      .ColorScheme-Text {
        color:#5d656b;
      }
      </style>
  </defs>
 <path style="fill:currentColor;fill-opacity:1;stroke:none" 
     d="M 11.5 4 L 11.5 5.8125 L 12.5 5.8125 L 12.5 4 L 11.5 4 z M 6.6875 5.96875 L 5.96875 6.6875 L 7.25 8 L 7.96875 7.25 L 6.6875 5.96875 z M 17.3125 5.96875 L 16.03125 7.25 L 16.75 8 L 18.03125 6.6875 L 17.3125 5.96875 z M 12 7 C 9.238576 7 7 9.2386 7 12 C 7 14.7614 9.238576 17 12 17 C 14.761424 17 17 14.7614 17 12 C 17 9.2386 14.761424 7 12 7 z M 12 8 L 12 16 C 9.790861 16 8 14.2091 8 12 C 8 9.7909 9.790861 8 12 8 z M 4 11.5 L 4 12.5 L 5.8125 12.5 L 5.8125 11.5 L 4 11.5 z M 18.1875 11.5 L 18.1875 12.5 L 20 12.5 L 20 11.5 L 18.1875 11.5 z M 7.25 16.03125 L 5.96875 17.3125 L 6.6875 18.03125 L 7.96875 16.75 L 7.25 16.03125 z M 16.75 16.03125 L 16.03125 16.75 L 17.3125 18.03125 L 18.03125 17.3125 L 16.75 16.03125 z M 11.5 18.1875 L 11.5 20 L 12.5 20 L 12.5 18.1875 L 11.5 18.1875 z "
     class="ColorScheme-Text"
     />
</svg>

<svg xmlns="http://www.w3.org/2000/svg" viewBox="0 0 24 24"><path d="M11.5 4v1.813h1V4h-1zM6.687 5.969l-.718.718L7.25 8l.719-.75-1.282-1.281zm10.625 0l-1.28 1.281.718.75 1.281-1.313-.718-.718zM12 7a5 5 0 1 0 0 10 5 5 0 0 0 0-10zm0 1v8a4 4 0 0 1 0-8zm-8 3.5v1h1.813v-1H4zm14.188 0v1H20v-1h-1.813zM7.25 16.031l-1.281 1.282.718.718L7.97 16.75l-.719-.719zm9.5 0l-.719.719 1.282 1.281.718-.718-1.281-1.282zm-5.25 2.157V20h1v-1.813h-1z" fill="currentColor" color="#5d656b"/></svg>
